Numix/64/mimetypes/application-apk.svg

<?xml version="1.0" encoding="UTF-8" standalone="no"?>
<svg
   xmlns:dc="http://purl.org/dc/elements/1.1/"
   xmlns:cc="http://creativecommons.org/ns#"
   xmlns:rdf="http://www.w3.org/1999/02/22-rdf-syntax-ns#"
   xmlns:svg="http://www.w3.org/2000/svg"
   xmlns="http://www.w3.org/2000/svg"
   xmlns:sodipodi="http://sodipodi.sourceforge.net/DTD/sodipodi-0.dtd"
   xmlns:inkscape="http://www.inkscape.org/namespaces/inkscape"
   width="64px"
   height="64px"
   viewBox="0 0 64 64"
   version="1.1"
   id="svg2"
   inkscape:version="0.91 r13725"
   sodipodi:docname="application-apk.svg">
  <metadata
     id="metadata21">
    <rdf:RDF>
      <cc:Work
         rdf:about="">
        <dc:format>image/svg+xml</dc:format>
        <dc:type
           rdf:resource="http://purl.org/dc/dcmitype/StillImage" />
        <dc:title></dc:title>
      </cc:Work>
    </rdf:RDF>
  </metadata>
  <defs
     id="defs19" />
  <sodipodi:namedview
     pagecolor="#ffffff"
     bordercolor="#666666"
     borderopacity="1"
     objecttolerance="10"
     gridtolerance="10"
     guidetolerance="10"
     inkscape:pageopacity="0"
     inkscape:pageshadow="2"
     inkscape:window-width="1366"
     inkscape:window-height="704"
     id="namedview17"
     showgrid="false"
     inkscape:zoom="1"
     inkscape:cx="29.324978"
     inkscape:cy="9.946096"
     inkscape:window-x="0"
     inkscape:window-y="27"
     inkscape:window-maximized="1"
     inkscape:current-layer="svg2">
    <inkscape:grid
       type="xygrid"
       id="grid4149" />
  </sodipodi:namedview>
  <g
     id="surface1">
    <path
       style=" stroke:none;fill-rule:nonzero;fill:rgb(75.686275%,58.431373%,32.54902%);fill-opacity:1;"
       d="M 10.742188 8 C 9.375 8 8 9.375 8 10.742188 L 8 53.335938 C 8 54.625 9.375 56 10.664062 56 L 53.335938 56 C 54.625 56 56 54.625 56 53.335938 L 56 10.664062 C 56 9.375 54.625 8 53.335938 8 Z M 10.742188 8 "
       id="path5" />
    <path
       style=" stroke:none;fill-rule:nonzero;fill:rgb(100%,100%,100%);fill-opacity:0.196078;"
       d="M 10.742188 8 C 9.375 8 8 9.375 8 10.742188 L 8 24 C 13.335938 24 50.664062 24 56 24 L 56 10.664062 C 56 9.375 54.625 8 53.335938 8 Z M 10.742188 8 "
       id="path7" />
    <path
       style=" stroke:none;fill-rule:nonzero;fill:rgb(100%,100%,100%);fill-opacity:0.392157;"
       d="M 28 14 L 28 34 L 36 34 L 36 14 Z M 28 14 "
       id="path9" />
  </g>
  <g
     transform="scale(1.033909,0.96720311)"
     style="font-style:normal;font-weight:normal;font-size:41.52624893px;line-height:125%;font-family:sans-serif;letter-spacing:0px;word-spacing:0px;fill:#ffff00;fill-opacity:1;stroke:none;stroke-width:1px;stroke-linecap:butt;stroke-linejoin:miter;stroke-opacity:1"
     id="text4140">
    <path
       d="m 24.340457,52.729359 -0.550154,-2.31699 -3.364351,0 -0.531183,2.31699 -2.311984,0 C 18.556451,48.778804 19.760327,44.97483 20.92165,41.35636 l 2.542091,0 c 1.268558,3.852376 2.397153,7.747664 3.262982,11.372999 z m -2.204674,-9.168217 c -0.481919,1.52057 -0.927367,3.379341 -1.21458,4.874082 l 2.402109,0 c -0.270068,-1.610848 -0.764956,-3.374488 -1.187529,-4.874082 z"
       style="font-style:normal;font-variant:normal;font-weight:bold;font-stretch:normal;font-size:18.16773415px;font-family:'Ubuntu Mono';-inkscape-font-specification:'Ubuntu Mono Bold';fill:#ffffff"
       id="path4145"
       inkscape:connector-curvature="0"
       sodipodi:nodetypes="ccccccccccccc" />
    <path
       d="m 30.913802,41.356357 c 1.392858,0 2.472914,0.29674 3.240167,0.890219 0.767253,0.581367 1.150879,1.538201 1.150879,2.870502 0,1.344413 -0.389528,2.319414 -1.168585,2.925005 -0.767253,0.593479 -1.859112,0.890219 -3.275579,0.890219 l -0.779057,0 0,3.797057 -2.177817,0 0,-11.100486 c 1.003343,-0.211405 2.003187,-0.246021 3.009992,-0.272516 z m 0.247881,1.943948 c -0.380663,-0.0021 -0.70092,0.03029 -1.080056,0.05451 l 0,3.633547 0.885292,0 c 0.696428,0 1.221702,-0.139286 1.575819,-0.417858 0.354116,-0.290684 0.531175,-0.781213 0.531175,-1.471587 0,-0.654038 -0.177059,-1.114287 -0.531175,-1.380747 -0.342314,-0.278572 -0.802665,-0.417858 -1.381055,-0.417865 z"
       style="font-style:normal;font-variant:normal;font-weight:bold;font-stretch:normal;font-size:18.16773415px;font-family:'Ubuntu Mono';-inkscape-font-specification:'Ubuntu Mono Bold';fill:#ffffff"
       id="path4147"
       inkscape:connector-curvature="0"
       sodipodi:nodetypes="ccscsccccccccscscc" />
    <path
       d="m 42.235878,52.729359 c -0.708892,-2.025928 -1.900337,-3.717513 -3.306528,-5.19961 l 0,5.19961 -2.234631,0 0,-11.372999 2.234631,0 0,4.721908 c 1.147617,-1.474228 2.113144,-3.03816 2.925005,-4.721908 l 2.525315,0 c -0.958324,1.917232 -2.180299,3.637369 -3.470037,5.236356 1.747185,1.721437 2.983006,3.839115 3.85156,6.136643 z"
       style="font-style:normal;font-variant:normal;font-weight:bold;font-stretch:normal;font-size:18.16773415px;font-family:'Ubuntu Mono';-inkscape-font-specification:'Ubuntu Mono Bold';fill:#ffffff"
       id="path4149"
       inkscape:connector-curvature="0"
       sodipodi:nodetypes="cccccccccccc" />
  </g>
</svg>

<svg xmlns="http://www.w3.org/2000/svg" viewBox="0 0 64 64">
 <g>
  <path d="m 10.742 8 c -1.367 0 -2.742 1.375 -2.742 2.742 l 0 42.594 c 0 1.289 1.375 2.664 2.664 2.664 l 42.672 0 c 1.289 0 2.664 -1.375 2.664 -2.664 l 0 -42.672 c 0 -1.289 -1.375 -2.664 -2.664 -2.664 m -42.594 0" style="fill:#c19553;fill-opacity:1;stroke:none;fill-rule:nonzero"/>
  <path d="m 10.742 8 c -1.367 0 -2.742 1.375 -2.742 2.742 l 0 13.258 c 5.336 0 42.664 0 48 0 l 0 -13.336 c 0 -1.289 -1.375 -2.664 -2.664 -2.664 m -42.594 0" style="fill:#fff;fill-opacity:0.196;stroke:none;fill-rule:nonzero"/>
  <path d="m 28 14 l 0 20 l 8 0 l 0 -20 m -8 0" style="fill:#fff;fill-opacity:0.392;stroke:none;fill-rule:nonzero"/>
 </g>
 <g transform="scale(1.033909,0.96720311)" style="fill:#ff0;fill-opacity:1;stroke:none">
  <path d="m 24.34 52.729 -0.55 -2.317 -3.364 0 -0.531 2.317 -2.312 0 c 0.974 -3.951 2.178 -7.755 3.339 -11.373 l 2.542 0 c 1.269 3.852 2.397 7.748 3.263 11.373 z m -2.205 -9.168 c -0.482 1.521 -0.927 3.379 -1.215 4.874 l 2.402 0 c -0.27 -1.611 -0.765 -3.374 -1.188 -4.874 z" style="fill:#fff"/>
  <path d="m 30.914 41.36 c 1.393 0 2.473 0.297 3.24 0.89 0.767 0.581 1.151 1.538 1.151 2.871 0 1.344 -0.39 2.319 -1.169 2.925 -0.767 0.593 -1.859 0.89 -3.276 0.89 l -0.779 0 0 3.797 -2.178 0 0 -11.1 c 1 -0.211 2 -0.246 3.01 -0.273 z m 0.248 1.944 c -0.381 -0.002 -0.701 0.03 -1.08 0.055 l 0 3.634 0.885 0 c 0.696 0 1.222 -0.139 1.576 -0.418 0.354 -0.291 0.531 -0.781 0.531 -1.472 0 -0.654 -0.177 -1.114 -0.531 -1.381 -0.342 -0.279 -0.803 -0.418 -1.381 -0.418 z" style="fill:#fff"/>
  <path d="m 42.24 52.729 c -0.709 -2.026 -1.9 -3.718 -3.307 -5.2 l 0 5.2 -2.235 0 0 -11.373 2.235 0 0 4.722 c 1.148 -1.474 2.113 -3.038 2.925 -4.722 l 2.525 0 c -0.958 1.917 -2.18 3.637 -3.47 5.236 1.747 1.721 2.983 3.839 3.852 6.137 z" style="fill:#fff"/>
 </g>
</svg>
